resources/svg/fan.svg

<svg xmlns="http://www.w3.org/2000/svg" viewBox="0 0 24 24" fill="currentColor"><path fill="none" stroke="currentColor" stroke-width="2" d="M12,15 C13.6568542,15 15,13.6568542 15,12 C15,10.3431458 13.6568542,9 12,9 C10.3431458,9 9,10.3431458 9,12 C9,13.6568542 10.3431458,15 12,15 Z M15,12 C19,15 20,19 20,19 M12,23 C18.0751322,23 23,18.0751322 23,12 C23,5.92486775 18.0751322,1 12,1 C5.92486775,1 1,5.92486775 1,12 C1,18.0751322 5.92486775,23 12,23 Z M12,9 C15,4 19,3 19,3 M12,15 C9,19 5,20 5,20 M9,12 C5,9 4,5 4,5"/></svg>

<svg viewBox="0 0 24 24"><path fill="none" stroke="currentColor" stroke-width="2" d="M12 15a3 3 0 1 0 0-6a3 3 0 0 0 0 6zm3-3c4 3 5 7 5 7m-8 4c6.075 0 11-4.925 11-11S18.075 1 12 1S1 5.925 1 12s4.925 11 11 11zm0-14c3-5 7-6 7-6m-7 12c-3 4-7 5-7 5m4-8C5 9 4 5 4 5"/></svg>
